X: 362
%
U:~=!turn!
T: The Maids of Arrochar
C:John Macdonald Dundee
O:Scotland
B:Keith Norman MacDonald : "The Skye collection of the best reels & strathspeys extant" : 1887
Z:Ralph Palmer
R:Air
M:6/8
L:1/8
K:D
"With expression."D/E/ | {DE}!p!F>ED {DE}F>ED | FA[EA] [F2A2] Td/>e/ | {/e}f>ed {de}f>ed | {/f}e2 d B2 {/c}d | {/G}!f!F>ED {DE}F>ED |
 FAA A2 Td/>e/ | (fd).A (BF).A | {/F}!p!TE2 D D2 :: A/G/ | (FA).B (FA).B | d>ef/e/ (dB).A |
(FA).B (FA).f | {/f}!p!e2 d B2 A | ~dfa fdA | TB/A/(B/c/).d/.B/ AFD | (Fd).A (BF).A | {/F}TE2 D D2 :|


